X:0
T:Toss the Haggis
M:C|
C:© Paul Gitlitz 2007
R:Reel
K:Bb
"Bb6"FB2F B2Bc|"Cm7"edc2 "Bb6"d4|f2fg fed2|"Cm7"cBAG "F7"F4|!
"Bb6"FB2F B2Bc|"Cm7"edc2"Bb6"d4|f2fg fed2|"F7"cBA2 "Bb6"B4:|!
|:"Gm7"g2ga bag2|"Bb6"fdfg f4|"F7"c2cd "Cm7"edc2|"Bb6"Bcde f3b|!
"Eb6"g2ga "Gm7"bag2|"Bb6"fdfg f4|"Bb6"FB2c "Cm7"edc2|"F7"cBA2"Bb6"B4:|]
